TGraph/docu_c45.svg

<svg xmlns="http://www.w3.org/2000/svg" viewBox="0 0 1200 800" preserveAspectRatio="none" width="1200" height="800">
 <path d="M0,0H1200V800H0Z" style="fill: white;"></path>
 <g>
  <g transform="translate(120,80)">
   <path d="M0,0H960V640H0Z" style="fill: white; stroke: black; stroke-width: 1;"></path>
   <svg x="0" y="0" overflow="hidden" width="960" height="640" viewBox="0 0 960 640">
    <g>
     <path d="M112,590l173,-115l128,-163l64,-109l96,-97l70,-36l58,55l96,145l25,109l39,211" style="stroke: black; stroke-width: 1; fill: none;"></path>
     <g transform="translate(112,590)">
      <path style="stroke: black; stroke-width: 1; fill: none;" d="M0,0H-32m0,3v-6M0,0H13m0,3v-6M0,0V48m3,0h-6M0,0V-36m3,0h-6"></path>
     </g>
     <g transform="translate(285,475)">
      <path style="stroke: black; stroke-width: 1; fill: none;" d="M0,0H-64m0,3v-6M0,0H51m0,3v-6M0,0V42m3,0h-6M0,0V-30m3,0h-6"></path>
     </g>
     <g transform="translate(413,312)">
      <path style="stroke: black; stroke-width: 1; fill: none;" d="M0,0H-45m0,3v-6M0,0H32m0,3v-6M0,0L32,36m3,0h-6M0,0V-24m3,0h-6"></path>
     </g>
     <g transform="translate(477,203)">
      <path style="stroke: black; stroke-width: 1; fill: none;" d="M0,0H-45m0,3v-6M0,0H32m0,3v-6M0,0V30m3,0h-6M0,0V-18m3,0h-6"></path>
     </g>
     <g transform="translate(573,106)">
      <path style="stroke: black; stroke-width: 1; fill: none;" d="M0,0H-26m0,3v-6M0,0H19m0,3v-6M0,0V24m3,0h-6M0,0V-12m3,0h-6"></path>
     </g>
     <g transform="translate(643,70)">
      <path style="stroke: black; stroke-width: 1; fill: none;" d="M0,0H-32m0,3v-6M0,0H19m0,3v-6M0,0V24m3,0h-6M0,0V-12m3,0h-6"></path>
     </g>
     <g transform="translate(701,125)">
      <path style="stroke: black; stroke-width: 1; fill: none;" d="M0,0H-38m0,3v-6M0,0H26m0,3v-6M0,0V30m3,0h-6M0,0V-18m3,0h-6"></path>
     </g>
     <g transform="translate(797,270)">
      <path style="stroke: black; stroke-width: 1; fill: none;" d="M0,0H-45m0,3v-6M0,0H32m0,3v-6M0,0V36m3,0h-6M0,0V-24m3,0h-6"></path>
     </g>
     <g transform="translate(822,379)">
      <path style="stroke: black; stroke-width: 1; fill: none;" d="M0,0H-51m0,3v-6M0,0H38m0,3v-6M0,0V42m3,0h-6M0,0L32,-30m3,0h-6"></path>
     </g>
     <g transform="translate(861,590)">
      <path style="stroke: black; stroke-width: 1; fill: none;" d="M0,0H-32m0,3v-6M0,0H19m0,3v-6M0,0V48m3,0h-6M0,0V-36m3,0h-6"></path>
     </g>
     <path d="M108,586v8h8v-8zM281,471v8h8v-8zM409,308v8h8v-8zM473,199v8h8v-8zM569,102v8h8v-8zM639,66v8h8v-8zM697,121v8h8v-8zM793,266v8h8v-8zM818,375v8h8v-8zM857,586v8h8v-8z" style="stroke: blue; fill: blue;"></path>
    </g>
   </svg>
   <g>
    <g transform="translate(0,640)">
     <path d="M0,0h960M29,-12v12m32,-12v12m32,-12v12m32,-24v24m32,-12v12m32,-12v12m32,-12v12m32,-24v24m32,-12v12m32,-12v12m32,-12v12m32,-24v24m32,-12v12m32,-12v12m32,-12v12m32,-24v24m32,-12v12m32,-12v12m32,-12v12m32,-24v24m32,-12v12m32,-12v12m32,-12v12m32,-24v24m32,-12v12m32,-12v12m32,-12v12m32,-24v24m32,-12v12m32,-12v12" style="stroke: black; stroke-width: 1;"></path>
     <g font-family="Arial" font-size="28" space="preserve" fill="black" text-anchor="middle">
      <text dy=".8em" transform="translate(125,6)">
       -0.2
      </text>
      <text dy=".8em" transform="translate(253,6)">
       0
      </text>
      <text dy=".8em" transform="translate(381,6)">
       0.2
      </text>
      <text dy=".8em" transform="translate(509,6)">
       0.4
      </text>
      <text dy=".8em" transform="translate(637,6)">
       0.6
      </text>
      <text dy=".8em" transform="translate(765,6)">
       0.8
      </text>
      <text dy=".8em" transform="translate(893,6)">
       1
      </text>
     </g>
    </g>
    <g>
     <path d="M0,0v640M18,639h-18m18,-12h-18m18,-12h-18m18,-13h-18m36,-12h-36m18,-12h-18m18,-12h-18m18,-12h-18m18,-12h-18m36,-12h-36m18,-12h-18m18,-12h-18m18,-12h-18m18,-12h-18m36,-13h-36m18,-12h-18m18,-12h-18m18,-12h-18m18,-12h-18m36,-12h-36m18,-12h-18m18,-12h-18m18,-12h-18m18,-12h-18m36,-13h-36m18,-12h-18m18,-12h-18m18,-12h-18m18,-12h-18m36,-12h-36m18,-12h-18m18,-12h-18m18,-12h-18m18,-12h-18m36,-13h-36m18,-12h-18m18,-12h-18m18,-12h-18m18,-12h-18m36,-12h-36m18,-12h-18m18,-12h-18m18,-12h-18m18,-12h-18m36,-13h-36m18,-12h-18m18,-12h-18m18,-12h-18m18,-12h-18m36,-12h-36m18,-12h-18m18,-12h-18m18,-12h-18" style="stroke: black; stroke-width: 1;"></path>
     <g font-family="Arial" font-size="28" space="preserve" fill="black" text-anchor="end">
      <text dy=".4em" transform="translate(-4,590)">
       1
      </text>
      <text dy=".4em" transform="translate(-4,530)">
       2
      </text>
      <text dy=".4em" transform="translate(-4,469)">
       3
      </text>
      <text dy=".4em" transform="translate(-4,409)">
       4
      </text>
      <text dy=".4em" transform="translate(-4,348)">
       5
      </text>
      <text dy=".4em" transform="translate(-4,288)">
       6
      </text>
      <text dy=".4em" transform="translate(-4,227)">
       7
      </text>
      <text dy=".4em" transform="translate(-4,167)">
       8
      </text>
      <text dy=".4em" transform="translate(-4,106)">
       9
      </text>
      <text dy=".4em" transform="translate(-4,46)">
       10
      </text>
     </g>
    </g>
   </g>
  </g>
  <g transform="translate(120,4)" font-family="Arial" font-size="40" space="preserve">
   <text fill="black" text-anchor="middle" dy=".8em" transform="translate(480)">
    TGraphBentErrors Example
   </text>
  </g>
 </g>
</svg>

<svg xmlns="http://www.w3.org/2000/svg" viewBox="0 0 1200 800" preserveAspectRatio="none" width="1200" height="800">
 <path d="M0,0H1200V800H0Z" style="fill: white;"></path>
 <g>
  <g transform="translate(120,80)">
   <path d="M0,0H960V640H0Z" style="fill: white; stroke: black; stroke-width: 1;"></path>
   <svg x="0" y="0" overflow="hidden" width="960" height="640" viewBox="0 0 960 640">
    <g>
     <path d="M112,590l173,-115l128,-163l64,-109l96,-97l70,-36l58,55l96,145l25,109l39,211" style="stroke: black; stroke-width: 1; fill: none;"></path>
     <g transform="translate(112,590)">
      <path style="stroke: black; stroke-width: 1; fill: none;" d="M0,0H-32m0,3v-6M0,0H13m0,3v-6M0,0V48m3,0h-6M0,0V-36m3,0h-6"></path>
     </g>
     <g transform="translate(285,475)">
      <path style="stroke: black; stroke-width: 1; fill: none;" d="M0,0H-64m0,3v-6M0,0H51m0,3v-6M0,0V42m3,0h-6M0,0V-30m3,0h-6"></path>
     </g>
     <g transform="translate(413,312)">
      <path style="stroke: black; stroke-width: 1; fill: none;" d="M0,0H-45m0,3v-6M0,0H32m0,3v-6M0,0L32,36m3,0h-6M0,0V-24m3,0h-6"></path>
     </g>
     <g transform="translate(477,203)">
      <path style="stroke: black; stroke-width: 1; fill: none;" d="M0,0H-45m0,3v-6M0,0H32m0,3v-6M0,0V30m3,0h-6M0,0V-18m3,0h-6"></path>
     </g>
     <g transform="translate(573,106)">
      <path style="stroke: black; stroke-width: 1; fill: none;" d="M0,0H-26m0,3v-6M0,0H19m0,3v-6M0,0V24m3,0h-6M0,0V-12m3,0h-6"></path>
     </g>
     <g transform="translate(643,70)">
      <path style="stroke: black; stroke-width: 1; fill: none;" d="M0,0H-32m0,3v-6M0,0H19m0,3v-6M0,0V24m3,0h-6M0,0V-12m3,0h-6"></path>
     </g>
     <g transform="translate(701,125)">
      <path style="stroke: black; stroke-width: 1; fill: none;" d="M0,0H-38m0,3v-6M0,0H26m0,3v-6M0,0V30m3,0h-6M0,0V-18m3,0h-6"></path>
     </g>
     <g transform="translate(797,270)">
      <path style="stroke: black; stroke-width: 1; fill: none;" d="M0,0H-45m0,3v-6M0,0H32m0,3v-6M0,0V36m3,0h-6M0,0V-24m3,0h-6"></path>
     </g>
     <g transform="translate(822,379)">
      <path style="stroke: black; stroke-width: 1; fill: none;" d="M0,0H-51m0,3v-6M0,0H38m0,3v-6M0,0V42m3,0h-6M0,0L32,-30m3,0h-6"></path>
     </g>
     <g transform="translate(861,590)">
      <path style="stroke: black; stroke-width: 1; fill: none;" d="M0,0H-32m0,3v-6M0,0H19m0,3v-6M0,0V48m3,0h-6M0,0V-36m3,0h-6"></path>
     </g>
     <path d="M108,586v8h8v-8zM281,471v8h8v-8zM409,308v8h8v-8zM473,199v8h8v-8zM569,102v8h8v-8zM639,66v8h8v-8zM697,121v8h8v-8zM793,266v8h8v-8zM818,375v8h8v-8zM857,586v8h8v-8z" style="stroke: blue; fill: blue;"></path>
    </g>
   </svg>
   <g>
    <g transform="translate(0,640)">
     <path d="M0,0h960M29,-12V0M61,-12V0M93,-12V0M125,-24V0M157,-12V0M189,-12V0M221,-12V0M253,-24V0M285,-12V0M317,-12V0M349,-12V0M381,-24V0M413,-12V0M445,-12V0M477,-12V0M509,-24V0M541,-12V0M573,-12V0M605,-12V0M637,-24V0M669,-12V0M701,-12V0M733,-12V0M765,-24V0M797,-12V0M829,-12V0M861,-12V0M893,-24V0M925,-12V0M957,-12V0" style="stroke: black; stroke-width: 1;"></path>
     <g font-family="Arial" font-size="28" space="preserve" fill="black" text-anchor="middle">
      <text dy=".8em" transform="translate(125,6)">
       -0.2
      </text>
      <text dy=".8em" transform="translate(253,6)">
       0
      </text>
      <text dy=".8em" transform="translate(381,6)">
       0.2
      </text>
      <text dy=".8em" transform="translate(509,6)">
       0.4
      </text>
      <text dy=".8em" transform="translate(637,6)">
       0.6
      </text>
      <text dy=".8em" transform="translate(765,6)">
       0.8
      </text>
      <text dy=".8em" transform="translate(893,6)">
       1
      </text>
     </g>
    </g>
    <g>
     <path d="M0,0v640M18,639H0M18,627H0M18,615H0M18,602H0M36,590H0M18,578H0M18,566H0M18,554H0M18,542H0M36,530H0M18,518H0M18,506H0M18,494H0M18,482H0M36,469H0M18,457H0M18,445H0M18,433H0M18,421H0M36,409H0M18,397H0M18,385H0M18,373H0M18,361H0M36,348H0M18,336H0M18,324H0M18,312H0M18,300H0M36,288H0M18,276H0M18,264H0M18,252H0M18,240H0M36,227H0M18,215H0M18,203H0M18,191H0M18,179H0M36,167H0M18,155H0M18,143H0M18,131H0M18,119H0M36,106H0M18,94H0M18,82H0M18,70H0M18,58H0M36,46H0M18,34H0M18,22H0M18,10H0" style="stroke: black; stroke-width: 1;"></path>
     <g font-family="Arial" font-size="28" space="preserve" fill="black" text-anchor="end">
      <text dy=".4em" transform="translate(-4,590)">
       1
      </text>
      <text dy=".4em" transform="translate(-4,530)">
       2
      </text>
      <text dy=".4em" transform="translate(-4,469)">
       3
      </text>
      <text dy=".4em" transform="translate(-4,409)">
       4
      </text>
      <text dy=".4em" transform="translate(-4,348)">
       5
      </text>
      <text dy=".4em" transform="translate(-4,288)">
       6
      </text>
      <text dy=".4em" transform="translate(-4,227)">
       7
      </text>
      <text dy=".4em" transform="translate(-4,167)">
       8
      </text>
      <text dy=".4em" transform="translate(-4,106)">
       9
      </text>
      <text dy=".4em" transform="translate(-4,46)">
       10
      </text>
     </g>
    </g>
   </g>
  </g>
  <g transform="translate(120,4)" font-family="Arial" font-size="40" space="preserve">
   <text fill="black" text-anchor="middle" dy=".8em" transform="translate(480)">
    TGraphBentErrors Example
   </text>
  </g>
 </g>
</svg>
